X: 5
T:LA LIAUDAIN-NA
M:3/4
L:1/4
Q:120
C:trad. Bresse
R:valse
K:C
cBc |d2g|ede|c2G|cBc|ded|cBA|G3:|ede| c3|def|g3|fed|c3|def|g2g|:a2a|g2g|
fed|g3|cBc|f2e|dcB|c3:|
